styles/3/Numix/16/places/default-folder-steam.svg

<?xml version="1.0" encoding="UTF-8" standalone="no"?>
<!-- Created with Inkscape (http://www.inkscape.org/) -->

<svg
   xmlns:dc="http://purl.org/dc/elements/1.1/"
   xmlns:cc="http://creativecommons.org/ns#"
   xmlns:rdf="http://www.w3.org/1999/02/22-rdf-syntax-ns#"
   xmlns:svg="http://www.w3.org/2000/svg"
   xmlns="http://www.w3.org/2000/svg"
   xmlns:sodipodi="http://sodipodi.sourceforge.net/DTD/sodipodi-0.dtd"
   xmlns:inkscape="http://www.inkscape.org/namespaces/inkscape"
   width="16"
   height="16"
   id="svg2"
   version="1.1"
   inkscape:version="0.91 r"
   sodipodi:docname="default-folder-steam.svg">
  <defs
     id="defs4" />
  <sodipodi:namedview
     id="base"
     pagecolor="#ffffff"
     bordercolor="#666666"
     borderopacity="1.0"
     inkscape:pageopacity="0.0"
     inkscape:pageshadow="2"
     inkscape:zoom="24.932586"
     inkscape:cx="-1.8562723"
     inkscape:cy="4.9053481"
     inkscape:document-units="px"
     inkscape:current-layer="layer1"
     showgrid="true"
     inkscape:window-width="1280"
     inkscape:window-height="998"
     inkscape:window-x="0"
     inkscape:window-y="0"
     inkscape:window-maximized="1">
    <inkscape:grid
       type="xygrid"
       id="grid2990"
       empspacing="5"
       visible="true"
       enabled="true"
       snapvisiblegridlinesonly="true" />
  </sodipodi:namedview>
  <metadata
     id="metadata7">
    <rdf:RDF>
      <cc:Work
         rdf:about="">
        <dc:format>image/svg+xml</dc:format>
        <dc:type
           rdf:resource="http://purl.org/dc/dcmitype/StillImage" />
        <dc:title />
      </cc:Work>
    </rdf:RDF>
  </metadata>
  <g
     inkscape:label="Body"
     inkscape:groupmode="layer"
     id="layer1"
     transform="translate(0,-1036.3622)">
    <path
       style="opacity:1;fill:#f2bb64;fill-opacity:1;fill-rule:nonzero;stroke:none"
       d="M 12.5 1.3125 C 10.574536 1.3125 9 2.8273 9 4.6875 C 9 5.3118377 9.1903968 5.9018139 9.5 6.40625 L 9.5 10.0625 C 9.1186557 10.138639 8.7663529 10.30681 8.46875 10.53125 L 5 9.03125 C 5 7.70455 3.8747164 6.625 2.5 6.625 C 1.1277451 6.625 -5.9211895e-16 7.70385 0 9.03125 C 0 10.36045 1.1271297 11.46875 2.5 11.46875 C 3.0567601 11.46875 3.5828475 11.270041 4 10.96875 L 7.5 12.5 C 7.5360845 13.799478 8.6496108 14.84375 10 14.84375 C 11.374716 14.84375 12.5 13.7667 12.5 12.4375 C 12.5 11.883667 12.296533 11.377821 11.96875 10.96875 L 12 10.96875 L 13.84375 7.8125 C 13.856906 7.8070854 13.861925 7.786816 13.875 7.78125 C 15.109004 7.2559384 16 6.0685421 16 4.6875 C 16 2.8291 14.423003 1.3125 12.5 1.3125 z M 12.5 2.4375 C 13.793489 2.4375 14.8125 3.4377 14.8125 4.6875 C 14.8125 5.9398 13.792873 6.9375 12.5 6.9375 C 11.204665 6.9375 10.1875 5.9398 10.1875 4.6875 C 10.1875 3.4377 11.204665 2.4375 12.5 2.4375 z M 12.5 3.25 C 11.672955 3.25 11 3.8844 11 4.6875 C 11 5.4874 11.672955 6.125 12.5 6.125 C 13.329507 6.125 14 5.488 14 4.6875 C 14 3.885 13.329507 3.25 12.5 3.25 z M 2.5 7.59375 C 3.3211024 7.59375 3.7893505 7.9142488 3.9375 8.5625 L 3.0625 8.1875 C 2.4951372 7.9542 1.8343561 8.1988 1.59375 8.75 C 1.3531438 9.2983 1.6201371 9.92555 2.1875 10.15625 L 2.84375 10.46875 C 2.7341941 10.483851 2.6252259 10.5 2.5 10.5 C 1.5000385 10.5 1 9.99975 1 9.03125 C 1 8.06505 1.5000385 7.59375 2.5 7.59375 z M 10 10.8125 C 10.925502 10.8125 11.65625 11.5434 11.65625 12.4375 C 11.65625 13.3316 10.925502 14.03125 10 14.03125 C 9.2484407 14.03125 8.613934 13.564114 8.40625 12.90625 L 9.59375 13.40625 C 10.161113 13.63945 10.821894 13.3628 11.0625 12.8125 C 11.303106 12.2642 11.036112 11.63705 10.46875 11.40625 L 9.375 10.9375 C 9.5665978 10.863722 9.7798249 10.8125 10 10.8125 z "
       transform="translate(0,1036.3622)"
       id="path3447" />
  </g>
</svg>

<!-- Created with Inkscape (http://www.inkscape.org/) -->
<svg xmlns="http://www.w3.org/2000/svg" viewBox="0 0 16 16">
 <g transform="translate(0,-1036.3622)">
  <path d="m 12.5 1.313 c -1.925 0 -3.5 1.515 -3.5 3.375 c 0 0.624 0.19 1.214 0.5 1.719 l 0 3.656 c -0.381 0.076 -0.734 0.244 -1.031 0.469 l -3.469 -1.5 c 0 -1.327 -1.125 -2.406 -2.5 -2.406 c -1.372 0 -2.5 1.079 -2.5 2.406 c 0 1.329 1.127 2.438 2.5 2.438 c 0.557 0 1.083 -0.199 1.5 -0.5 l 3.5 1.531 c 0.036 1.299 1.15 2.344 2.5 2.344 c 1.375 0 2.5 -1.077 2.5 -2.406 c 0 -0.554 -0.203 -1.06 -0.531 -1.469 l 0.031 0 l 1.844 -3.156 c 0.013 -0.005 0.018 -0.026 0.031 -0.031 c 1.234 -0.525 2.125 -1.713 2.125 -3.094 c 0 -1.858 -1.577 -3.375 -3.5 -3.375 z m 0 1.125 c 1.293 0 2.313 1 2.313 2.25 c 0 1.252 -1.02 2.25 -2.313 2.25 c -1.295 0 -2.313 -0.998 -2.313 -2.25 c 0 -1.25 1.017 -2.25 2.313 -2.25 z m 0 0.813 c -0.827 0 -1.5 0.634 -1.5 1.438 c 0 0.8 0.673 1.438 1.5 1.438 c 0.83 0 1.5 -0.637 1.5 -1.438 c 0 -0.803 -0.67 -1.438 -1.5 -1.438 z m -10 4.344 c 0.821 0 1.289 0.32 1.438 0.969 l -0.875 -0.375 c -0.567 -0.233 -1.228 0.011 -1.469 0.563 c -0.241 0.548 0.026 1.176 0.594 1.406 l 0.656 0.313 c -0.11 0.015 -0.219 0.031 -0.344 0.031 c -1 0 -1.5 -0.5 -1.5 -1.469 c 0 -0.966 0.5 -1.438 1.5 -1.438 z m 7.5 3.219 c 0.926 0 1.656 0.731 1.656 1.625 c 0 0.894 -0.731 1.594 -1.656 1.594 c -0.752 0 -1.386 -0.467 -1.594 -1.125 l 1.188 0.5 c 0.567 0.233 1.228 -0.043 1.469 -0.594 c 0.241 -0.548 -0.026 -1.175 -0.594 -1.406 l -1.094 -0.469 c 0.192 -0.074 0.405 -0.125 0.625 -0.125 z" transform="translate(0,1036.3622)" style="fill:#f2bb64;opacity:1;fill-opacity:1;stroke:none;fill-rule:nonzero"/>
 </g>
</svg>
